!!!OTL: Der Jaeger und die schwarzbraune Hexe. / Zweite Weise.
!!!OTL-incipit: ES BLIES EIN JAEGER
!!!COM: Volksweise
!!!ARE: Europa, Mitteleuropa, Deutschland
!!!SCT: F0661A
!!!TXL: @@DE
!!!YEM: Copyright 1995, estate of Helmut Schaffrath.
**kern	**text
*ICvox	*
*clefG2	*
*M2/4	*
*k[f#c#g#]	*
*A:	*
!LO:TX:a:t=P:only the highest voice encoded:problem	!
{8e	1._Es
=1	=1
8a	blies
8a	ein
[>16a	Jä-
16a]	-ger
8b/	wohl
=2	=2
8cc#	in
8ee	ſein
8a}	Horn,
{8b/	wohl
=3	=3
8cc#	in
8ee	ſein
8a}	Horn,
{8a	und
=4	=4
16b/	Alles,
16b/	.
16b/	was
16b/	er
16b/L	blies,
16aJ	.
16g#/L	das
16aJ	.
=5	=5
16b/L	war
16aJ	.
16g#L	verlor'n.
16f#J	.
8e	.
8r}	.
=6	=6
{8a	Hop-
8a	-ſa-
8a	-ſa,
8cc#	tra-
=7	=7
8b/	-ra-
8b/	-ra-
8.b/}	-ra,
{16b/	und
=8	=8
16cc#/	Al-
16b/	-les,
16cc#/	was
16dd	er
8ee	blies,
8a	das
=9	=9
16cc#/L	war
16bJ	.
8b/	ver-
8a;}	-lor'n.
==	==
!!!AGN: Staende -, Jaeger - Lied, Liebe, Tod
!!!ONB: ESAC (Essen Associative Code) Database: FINK
!!!AMT: simple duple
!!!AIN: vox
!!!EED: Helmut Schaffrath
!!!EEV: 1.0
!!!RDF**kern: > = above
!!!GTL: Soldaten- und Jaegerlieder
!!Text: Volkslied
!!!source: Musikalischer Hausschatz der Deutschen. Eine Sammlung von über 1000 Liedern und Gesängen mit Singstimmen und Klavierbegleitung. Leipzig, Litterarisches Verlags-Haus.
!!!page: 435
!!!URL-scan: https://www.digitale-sammlungen.de/en/view/bsb11144622?page=402
!!!ENC: Anna Maria Matuszewska
!!!EEV: 2024/08/05
*-	*-
